gift-open-outline.svg

<svg fill="currentColor" viewBox="0 0 24 24"><path d="m22 10.87-2.74-1.59c.24-.21.47-.48.64-.78.83-1.43.34-3.27-1.1-4.1-.86-.5-1.87-.5-2.72-.14l.01-.01-.88.39-.11-.96-.01.01c-.09-.91-.62-1.79-1.48-2.29A3.023 3.023 0 0 0 9.5 2.5c-.17.3-.28.63-.34.95L6.41 1.87c-.96-.55-2.18-.23-2.73.73l-1.5 2.6a.99.99 0 0 0 .37 1.36l1.73 1L8.5 10H2v10a2 2 0 0 0 2 2h16c1.11 0 2-.89 2-2v-5.13l.73-1.27c.55-.96.23-2.18-.73-2.73M16.44 6.5c.27-.5.89-.64 1.36-.37.48.28.65.87.37 1.37s-.89.64-1.37.37c-.47-.28-.64-.87-.36-1.37m-2.37 2.1 6.93 4-1 1.73-6.93-4zM11 20H4v-8h7zm.34-10.67-6.93-4 1-1.73 6.93 4zm.27-4.46c-.48-.28-.64-.87-.37-1.37.26-.5.89-.64 1.37-.37.48.28.64.87.36 1.37-.27.5-.88.64-1.36.37M13 20v-7.4l7 4.04V20z"/></svg>

<svg  viewBox="0 0 24 24" fill="currentColor"><path  d="M22 10.87L19.26 9.28C19.5 9.07 19.73 8.8 19.9 8.5C20.73 7.07 20.24 5.23 18.8 4.4C17.94 3.9 16.93 3.9 16.08 4.26L16.09 4.25L15.21 4.64L15.1 3.68L15.09 3.69C15 2.78 14.47 1.9 13.61 1.4C12.17 .575 10.34 1.07 9.5 2.5C9.33 2.8 9.22 3.13 9.16 3.45L6.41 1.87C5.45 1.32 4.23 1.64 3.68 2.6L2.18 5.2C1.9 5.68 2.07 6.29 2.55 6.56L4.28 7.56L8.5 10H2V20C2 21.11 2.9 22 4 22H20C21.11 22 22 21.11 22 20V14.87L22.73 13.6C23.28 12.64 22.96 11.42 22 10.87M16.44 6.5C16.71 6 17.33 5.86 17.8 6.13C18.28 6.41 18.45 7 18.17 7.5C17.89 8 17.28 8.14 16.8 7.87C16.33 7.59 16.16 7 16.44 6.5M14.07 8.6L21 12.6L20 14.33L13.07 10.33L14.07 8.6M11 20H4V12H11V20M11.34 9.33L4.41 5.33L5.41 3.6L12.34 7.6L11.34 9.33M11.61 4.87C11.13 4.59 10.97 4 11.24 3.5C11.5 3 12.13 2.86 12.61 3.13C13.09 3.41 13.25 4 12.97 4.5C12.7 5 12.09 5.14 11.61 4.87M13 20V12.6L20 16.64V20H13Z"/></svg>
